X: 26359
T: Merrily Kissed The Quaker
R: slide
M: 12/8
K: Gmajor
M:6/8
|:GAB D2 B|c2 B A3|GAB D2 D|E3 G3:|
GAB d2 B|e2 B d3|GAB d2 B|c3 d3|
e2 c ABc|d2 B G3|GAB D2 D|E3 G3||

